img/screens/empowering/01.svg

<svg width="140" height="90" viewBox="0 0 140 90" fill="none" xmlns="http://www.w3.org/2000/svg">
<mask id="mask0_10_159" style="mask-type:alpha" maskUnits="userSpaceOnUse" x="0" y="0" width="140" height="90">
<rect width="140" height="90" fill="#D9D9D9"/>
</mask>
<g mask="url(#mask0_10_159)">
<path fill-rule="evenodd" clip-rule="evenodd" d="M91.9092 6.29431C79.5267 4.0783 66.5385 3.48344 53.6439 6.1269C40.9615 8.72685 28.7233 13.5087 20.4491 20.944C12.509 28.0791 12.2676 37.0949 9.64601 45.6641C6.76982 55.0657 -2.46606 65.6866 4.4178 73.3465C11.3201 81.0269 28.4781 79.1621 41.5002 81.1095C52.2302 82.7141 62.4363 84.4066 73.6826 83.7048C87.3153 82.8541 102.368 83.21 113.073 76.6432C124.196 69.8195 127.222 59.078 129.824 49.2657C132.537 39.033 135.608 27.8342 128.233 19.4757C120.936 11.2048 105.679 8.75864 91.9092 6.29431Z" fill="url(#paint0_linear_10_159)"/>
<path fill-rule="evenodd" clip-rule="evenodd" d="M95.0342 8.8656C82.6517 6.64959 69.6635 6.05472 56.7689 8.69819C44.0865 11.2981 31.8483 16.08 23.5741 23.5153C15.634 30.6504 15.3926 39.6662 12.771 48.2354C9.89482 57.637 0.658942 68.2579 7.5428 75.9178C14.4451 83.5982 31.6031 81.7334 44.6252 83.6808C55.3552 85.2854 65.5613 86.9779 76.8076 86.2761C90.4403 85.4254 105.493 85.7812 116.198 79.2145C127.321 72.3908 130.347 61.6492 132.949 51.837C135.662 41.6043 138.733 30.4055 131.358 22.047C124.061 13.776 108.804 11.3299 95.0342 8.8656Z" fill="url(#paint1_linear_10_159)"/>
</g>
<path d="M93.8632 72.4936H51.834C50.9084 72.5032 50.0166 72.1459 49.3537 71.4998C48.6907 70.8537 48.3106 69.9714 48.2964 69.0458L46.9766 27.5374C46.9801 27.0779 47.0742 26.6237 47.2536 26.2007C47.4329 25.7777 47.694 25.3942 48.0217 25.0723C48.3495 24.7504 48.7376 24.4962 49.1638 24.3245C49.5899 24.1528 50.0458 24.0668 50.5052 24.0716H59.9059C59.9909 24.0723 60.0739 24.0971 60.1454 24.1432C60.2168 24.1892 60.2737 24.2546 60.3094 24.3318C60.3452 24.4089 60.3583 24.4946 60.3473 24.5788C60.3362 24.6631 60.3015 24.7425 60.2471 24.8078C59.5933 25.5563 59.2189 26.5081 59.1876 27.5014C59.1876 31.4072 65.32 34.5766 72.8531 34.5766C80.3862 34.5766 86.5187 31.4072 86.5187 27.5014C86.4878 26.5064 86.1098 25.5535 85.4502 24.8078C85.3982 24.7412 85.3656 24.6615 85.3561 24.5775C85.3466 24.4935 85.3605 24.4085 85.3963 24.332C85.4312 24.2541 85.4879 24.188 85.5597 24.1417C85.6314 24.0955 85.715 24.0711 85.8004 24.0716H95.1921C95.6508 24.0656 96.1061 24.1501 96.5322 24.3202C96.9582 24.4903 97.3465 24.7426 97.675 25.0627C98.0035 25.3829 98.2657 25.7647 98.4467 26.1862C98.6277 26.6077 98.7238 27.0607 98.7297 27.5194L97.4547 69.0637C97.4466 69.5255 97.3469 69.9811 97.1616 70.4042C96.9762 70.8272 96.7088 71.2092 96.3748 71.5282C96.0407 71.8472 95.6468 72.0968 95.2157 72.2625C94.7846 72.4282 94.3249 72.5067 93.8632 72.4936ZM50.4962 24.9694C49.8095 24.9598 49.147 25.2228 48.6539 25.7008C48.1608 26.1788 47.8773 26.8328 47.8654 27.5194L49.1853 69.0368C49.19 69.3783 49.2621 69.7156 49.3974 70.0292C49.5327 70.3428 49.7286 70.6267 49.9738 70.8644C50.2191 71.1022 50.5089 71.2891 50.8265 71.4146C51.1442 71.5401 51.4835 71.6017 51.825 71.5957H93.8632C94.204 71.6017 94.5426 71.5404 94.8597 71.4155C95.1768 71.2906 95.4662 71.1044 95.7113 70.8676C95.9565 70.6308 96.1525 70.348 96.2884 70.0354C96.4242 69.7229 96.4971 69.3866 96.503 69.0458L97.8228 27.5104C97.8087 26.8238 97.5229 26.1707 97.0281 25.6944C96.5333 25.2181 95.8698 24.9574 95.1831 24.9694H86.6803C87.16 25.7341 87.4179 26.6168 87.4255 27.5194C87.4255 31.919 80.898 35.4925 72.8621 35.4925C64.8262 35.4925 58.2987 31.901 58.2987 27.5194C58.3063 26.6168 58.5642 25.7341 59.0439 24.9694H50.4962Z" fill="#2E2E2E"/>
<path d="M89.2472 67.5732H56.4571C55.699 67.5804 54.969 67.2867 54.427 66.7565C53.8851 66.2264 53.5754 65.503 53.566 64.7449L52.2461 31.838C52.2452 31.4655 52.3186 31.0966 52.4619 30.7528C52.6053 30.409 52.8158 30.0972 53.0811 29.8358C53.1339 29.7874 53.1966 29.7512 53.2648 29.7295C53.3331 29.7077 53.4052 29.7011 53.4762 29.7101C53.547 29.724 53.6137 29.7539 53.6713 29.7975C53.7288 29.841 53.7757 29.8971 53.8084 29.9615C55.9902 34.5586 63.8196 37.7639 72.8522 37.7639C81.8847 37.7639 89.7141 34.5586 91.896 29.9615C91.9286 29.8971 91.9755 29.841 92.0331 29.7975C92.0907 29.7539 92.1574 29.724 92.2282 29.7101C92.2979 29.6985 92.3694 29.7038 92.4366 29.7257C92.5038 29.7476 92.5647 29.7853 92.6142 29.8358C92.8811 30.0928 93.0933 30.401 93.2383 30.742C93.3834 31.0829 93.4581 31.4496 93.4582 31.8201L92.1384 64.7539C92.1242 65.5096 91.8128 66.2294 91.2716 66.7571C90.7305 67.2848 90.0031 67.578 89.2472 67.5732ZM53.3325 30.994C53.2016 31.2496 53.1339 31.5329 53.135 31.8201L54.4548 64.7269C54.462 65.2492 54.6757 65.7475 55.0492 66.1126C55.4228 66.4778 55.9258 66.6801 56.4481 66.6753H89.2383C89.7583 66.6825 90.2599 66.4834 90.6335 66.1217C91.0071 65.7599 91.2221 65.2648 91.2315 64.7449L92.5514 31.8201C92.5511 31.5359 92.4834 31.2559 92.3539 31.003C89.6603 35.5552 81.7949 38.6798 72.8432 38.6798C63.8915 38.6798 56.0531 35.5372 53.3415 30.994H53.3325Z" fill="#2E2E2E"/>
<path d="M72.8519 33.9751C65.5792 33.9751 59.8867 30.9044 59.8867 26.9807C59.8867 23.057 65.5792 19.9863 72.8519 19.9863C80.1247 19.9863 85.7812 23.057 85.7812 26.9807C85.7812 30.9044 80.1157 33.9751 72.8519 33.9751ZM72.8519 20.8842C66.1987 20.8842 60.7846 23.5778 60.7846 26.9807C60.7846 30.3836 66.1718 33.0772 72.8519 33.0772C79.5321 33.0772 84.8834 30.3387 84.8834 26.9807C84.8834 23.6227 79.4962 20.8842 72.8519 20.8842Z" fill="#2E2E2E"/>
<path d="M73.5 30.033C73.5 30.2045 73.4319 30.3689 73.3106 30.4901C73.1894 30.6114 73.025 30.6795 72.8535 30.6795C72.682 30.6795 72.5176 30.6114 72.3964 30.4901C72.2751 30.3689 72.207 30.2045 72.207 30.033C72.2066 29.8989 72.2491 29.7682 72.3282 29.66C72.4074 29.5517 72.5191 29.4717 72.647 29.4314V26.5493C72.647 26.5222 72.6523 26.4953 72.6627 26.4703C72.6731 26.4452 72.6883 26.4224 72.7075 26.4033C72.7267 26.3841 72.7494 26.3689 72.7745 26.3585C72.7995 26.3481 72.8264 26.3428 72.8535 26.3428C72.8806 26.3428 72.9075 26.3481 72.9325 26.3585C72.9576 26.3689 72.9803 26.3841 72.9995 26.4033C73.0187 26.4224 73.0339 26.4452 73.0443 26.4703C73.0547 26.4953 73.06 26.5222 73.06 26.5493V29.4314C73.1872 29.4729 73.2981 29.5533 73.377 29.6612C73.456 29.7692 73.499 29.8993 73.5 30.033Z" fill="#2E2E2E"/>
<path d="M73.3119 23.4067V24.6817C73.2911 24.7854 73.235 24.8787 73.1531 24.9457C73.0713 25.0128 72.9688 25.0494 72.863 25.0494C72.7572 25.0494 72.6547 25.0128 72.5729 24.9457C72.491 24.8787 72.4349 24.7854 72.4141 24.6817V23.4067C72.4349 23.303 72.491 23.2097 72.5729 23.1427C72.6547 23.0757 72.7572 23.0391 72.863 23.0391C72.9688 23.0391 73.0713 23.0757 73.1531 23.1427C73.235 23.2097 73.2911 23.303 73.3119 23.4067Z" fill="#2E2E2E"/>
<path d="M76.6234 23.6851C76.6683 23.7944 76.6683 23.917 76.6234 24.0263L76.1745 25.2294C76.1426 25.3177 76.0839 25.3937 76.0066 25.4468C75.9293 25.5 75.8373 25.5276 75.7435 25.5257H75.5909C75.5337 25.5068 75.4809 25.4763 75.436 25.4362C75.391 25.3961 75.3548 25.3471 75.3295 25.2924C75.3043 25.2377 75.2906 25.1783 75.2892 25.1181C75.2878 25.0578 75.2988 24.9979 75.3215 24.9421L75.7705 23.739C75.8129 23.6285 75.8964 23.5388 76.0035 23.4886C76.1107 23.4384 76.2331 23.4316 76.3451 23.4696C76.4036 23.4849 76.4584 23.5119 76.5063 23.5489C76.5541 23.586 76.5939 23.6323 76.6234 23.6851Z" fill="#2E2E2E"/>
<path d="M79.3821 24.8973C79.3861 24.9577 79.3778 25.0183 79.3577 25.0753C79.3377 25.1324 79.3063 25.1849 79.2654 25.2295L78.3675 26.1902C78.3248 26.2355 78.2734 26.2716 78.2162 26.2963C78.1591 26.321 78.0976 26.3338 78.0353 26.3339C77.947 26.3363 77.8599 26.3125 77.7849 26.2656C77.71 26.2187 77.6506 26.1507 77.6141 26.0702C77.5777 25.9896 77.5658 25.9001 77.5801 25.8128C77.5943 25.7256 77.634 25.6445 77.6941 25.5797L78.592 24.628C78.6752 24.542 78.7873 24.4899 78.9067 24.4816C79.026 24.4733 79.1442 24.5095 79.2385 24.5831C79.324 24.6661 79.3753 24.7783 79.3821 24.8973Z" fill="#2E2E2E"/>
<path d="M70.3728 24.9158C70.4173 25.0283 70.4173 25.1535 70.3728 25.266C70.3161 25.372 70.2239 25.4546 70.1124 25.4994H69.9508C69.8585 25.4994 69.7685 25.4709 69.693 25.4179C69.6175 25.3649 69.5602 25.2899 69.5288 25.2031L69.0799 24C69.0555 23.9464 69.043 23.8882 69.043 23.8294C69.043 23.7706 69.0555 23.7124 69.0799 23.6588C69.1049 23.6031 69.1408 23.5529 69.1855 23.5113C69.2303 23.4696 69.2829 23.4374 69.3402 23.4164C69.3962 23.395 69.4558 23.385 69.5157 23.387C69.5756 23.389 69.6344 23.4029 69.6888 23.428C69.7432 23.4531 69.792 23.4889 69.8324 23.5331C69.8727 23.5774 69.9038 23.6293 69.9238 23.6857L70.3728 24.9158Z" fill="#2E2E2E"/>
<path d="M67.9936 25.58C68.0538 25.6448 68.0935 25.7259 68.1077 25.8132C68.1219 25.9004 68.1101 25.9899 68.0736 26.0705C68.0372 26.151 67.9778 26.219 67.9029 26.266C67.8279 26.3129 67.7408 26.3366 67.6524 26.3342C67.5902 26.3341 67.5287 26.3213 67.4715 26.2966C67.4144 26.2719 67.3629 26.2358 67.3202 26.1906L66.4224 25.2298C66.3815 25.1852 66.3501 25.1328 66.3301 25.0757C66.31 25.0186 66.3017 24.958 66.3056 24.8976C66.3148 24.7773 66.3694 24.665 66.4583 24.5834C66.5503 24.5084 66.6675 24.4713 66.7859 24.4797C66.9043 24.488 67.0151 24.5412 67.0958 24.6283L67.9936 25.58Z" fill="#2E2E2E"/>
<defs>
<linearGradient id="paint0_linear_10_159" x1="77.9908" y1="1.34292" x2="76.1016" y2="88.2658" gradientUnits="userSpaceOnUse">
<stop stop-color="#6D7582"/>
<stop offset="1" stop-color="#F4ECFF"/>
</linearGradient>
<linearGradient id="paint1_linear_10_159" x1="81.1158" y1="3.91421" x2="79.2266" y2="90.8371" gradientUnits="userSpaceOnUse">
<stop stop-color="#E8F0FE"/>
<stop offset="1" stop-color="#F4ECFF"/>
</linearGradient>
</defs>
</svg>

<svg width="140" height="90" fill="none" xmlns="http://www.w3.org/2000/svg"><mask id="a" style="mask-type:alpha" maskUnits="userSpaceOnUse" x="0" y="0" width="140" height="90"><path fill="#D9D9D9" d="M0 0h140v90H0z"/></mask><g mask="url(#a)" fill-rule="evenodd" clip-rule="evenodd"><path d="M91.91 6.294c-12.383-2.216-25.371-2.81-38.266-.167-12.682 2.6-24.92 7.382-33.195 14.817-7.94 7.135-8.181 16.15-10.803 24.72C6.77 55.066-2.466 65.687 4.418 73.347c6.902 7.68 24.06 5.815 37.082 7.763 10.73 1.604 20.936 3.297 32.183 2.595 13.632-.85 28.685-.495 39.39-7.062 11.123-6.823 14.149-17.565 16.751-27.377 2.713-10.233 5.784-21.432-1.591-29.79-7.297-8.271-22.554-10.717-36.324-13.182Z" fill="url(#b)"/><path d="M95.034 8.866C82.652 6.65 69.664 6.055 56.77 8.698c-12.682 2.6-24.92 7.382-33.195 14.817-7.94 7.135-8.181 16.151-10.803 24.72C9.895 57.637.659 68.258 7.543 75.918c6.902 7.68 24.06 5.815 37.082 7.763 10.73 1.604 20.936 3.297 32.183 2.595 13.632-.85 28.685-.495 39.39-7.061 11.123-6.824 14.149-17.566 16.751-27.378 2.713-10.233 5.784-21.432-1.591-29.79-7.297-8.271-22.554-10.717-36.324-13.181Z" fill="url(#c)"/></g><path d="M93.863 72.494H51.834a3.502 3.502 0 0 1-3.538-3.448l-1.32-41.509a3.491 3.491 0 0 1 3.53-3.465h9.4a.449.449 0 0 1 .341.736 4.3 4.3 0 0 0-1.06 2.693c0 3.906 6.133 7.076 13.666 7.076S86.52 31.407 86.52 27.5a4.265 4.265 0 0 0-1.069-2.693.458.458 0 0 1 .11-.666.44.44 0 0 1 .24-.07h9.392a3.491 3.491 0 0 1 3.538 3.447l-1.275 41.545a3.494 3.494 0 0 1-3.592 3.43ZM50.496 24.969a2.595 2.595 0 0 0-2.63 2.55l1.32 41.518a2.596 2.596 0 0 0 2.639 2.559h42.038a2.595 2.595 0 0 0 2.64-2.55l1.32-41.536a2.595 2.595 0 0 0-2.64-2.54H86.68c.48.764.738 1.647.745 2.55 0 4.399-6.527 7.973-14.563 7.973-8.036 0-14.563-3.592-14.563-7.974a4.876 4.876 0 0 1 .745-2.55h-8.548Z" fill="#2E2E2E"/><path d="M89.247 67.573h-32.79a2.864 2.864 0 0 1-2.891-2.828l-1.32-32.907a2.803 2.803 0 0 1 .835-2.002.493.493 0 0 1 .395-.126.475.475 0 0 1 .332.252c2.182 4.597 10.012 7.802 19.044 7.802 9.033 0 16.862-3.205 19.044-7.803a.474.474 0 0 1 .332-.25.44.44 0 0 1 .386.125 2.754 2.754 0 0 1 .844 1.984l-1.32 32.934a2.873 2.873 0 0 1-2.89 2.82ZM53.333 30.994c-.131.256-.2.539-.198.826l1.32 32.907a1.976 1.976 0 0 0 1.993 1.948h32.79a1.967 1.967 0 0 0 1.993-1.93l1.32-32.925a1.8 1.8 0 0 0-.197-.817c-2.694 4.552-10.56 7.677-19.51 7.677-8.952 0-16.79-3.143-19.502-7.686h-.01Z" fill="#2E2E2E"/><path d="M72.852 33.975c-7.273 0-12.965-3.07-12.965-6.994s5.692-6.995 12.965-6.995 12.93 3.071 12.93 6.995c0 3.923-5.666 6.994-12.93 6.994Zm0-13.09c-6.653 0-12.067 2.693-12.067 6.096s5.387 6.096 12.067 6.096c6.68 0 12.031-2.738 12.031-6.096s-5.387-6.097-12.031-6.097Z" fill="#2E2E2E"/><path d="M73.5 30.033a.646.646 0 1 1-1.172-.373.629.629 0 0 1 .319-.229V26.55a.206.206 0 0 1 .285-.19.206.206 0 0 1 .128.19v2.882a.638.638 0 0 1 .44.602Zm-.188-6.626v1.275a.457.457 0 0 1-.898 0v-1.275a.457.457 0 0 1 .898 0Zm3.311.278a.449.449 0 0 1 0 .341l-.449 1.203a.449.449 0 0 1-.43.297h-.153a.44.44 0 0 1-.27-.584l.45-1.203a.458.458 0 0 1 .574-.27.45.45 0 0 1 .278.216Zm2.759 1.212a.447.447 0 0 1-.117.333l-.897.96a.457.457 0 0 1-.333.144.45.45 0 0 1-.34-.754l.897-.952a.485.485 0 0 1 .647-.045.476.476 0 0 1 .143.314Zm-9.009.019a.476.476 0 0 1 0 .35.512.512 0 0 1-.26.233h-.162a.449.449 0 0 1-.422-.296L69.079 24a.412.412 0 0 1 0-.341.457.457 0 0 1 .437-.272.449.449 0 0 1 .408.299l.449 1.23Zm-2.379.664a.448.448 0 0 1-.342.754.458.458 0 0 1-.332-.143l-.898-.961a.446.446 0 0 1-.116-.332.476.476 0 0 1 .152-.315.466.466 0 0 1 .638.045l.898.952Z" fill="#2E2E2E"/><defs><linearGradient id="b" x1="77.991" y1="1.343" x2="76.102" y2="88.266" gradientUnits="userSpaceOnUse"><stop stop-color="#6D7582"/><stop offset="1" stop-color="#F4ECFF"/></linearGradient><linearGradient id="c" x1="81.116" y1="3.914" x2="79.227" y2="90.837" gradientUnits="userSpaceOnUse"><stop stop-color="#E8F0FE"/><stop offset="1" stop-color="#F4ECFF"/></linearGradient></defs></svg>
